X: 6
T: Palm Sunday
Z: SaiPavel
S: https://thesession.org/tunes/770#setting30320
R: slide
M: 12/8
L: 1/8
K: Ador
B|:AGE FGE|FGE FGE|A2B c2d|e2d efg|~e3 dBA|BAG Bcd|edc BAG|B2A A2B:|
a3 efg|a3 bge|g3 gfe|dBA GB1/2c1/2d|efg ded|BAG Bcd|edc BAG|B2A A2B|
a3 bge|g3 gfe|dBG GB1/2c1/2d|e2g ded|BAG Bcd|edc BAG|B2a A2b||
